svg/message-alt.svg

<svg xmlns="http://www.w3.org/2000/svg" viewBox="0 0 64 63" enable-background="new 0 0 64 63"><style type="text/css">.st0{fill:#343434;}</style><title>message-alt</title><desc>Created with Sketch.</desc><path class="st0" d="M53 0h-42c-6.1 0-11 4.9-11 11v26c0 6.1 4.9 11 11 11h21.3l19.3 14.3c1.3 1 2.2.4 2-1.2l-1.6-13.1 4-.4c4.6-1.3 8-5.5 8-10.6v-26c0-6.1-4.9-11-11-11zm7 37c0 3.9-3.1 7-7 7h-5.5l1.4 11.3-15.3-11.3h-22.6c-3.9 0-7-3.1-7-7v-26c0-3.9 3.1-7 7-7h42c3.9 0 7 3.1 7 7v26z"/></svg>

<?xml version="1.0" encoding="utf-8"?>
<!-- Generator: Adobe Illustrator 21.0.0, SVG Export Plug-In . SVG Version: 6.00 Build 0)  -->
<svg version="1.1" id="Layer_1" xmlns="http://www.w3.org/2000/svg" xmlns:xlink="http://www.w3.org/1999/xlink" x="0px" y="0px"
	 viewBox="0 0 64 63" style="enable-background:new 0 0 64 63;" xml:space="preserve">
<style type="text/css">
	.st0{fill:#343434;}
</style>
<title>message-alt</title>
<desc>Created with Sketch.</desc>
<path class="st0" d="M53,0H11C4.9,0,0,4.9,0,11v26c0,6.1,4.9,11,11,11h21.3l19.3,14.3c1.3,1,2.2,0.4,2-1.2L52,48l4-0.4
	c4.6-1.3,8-5.5,8-10.6V11C64,4.9,59.1,0,53,0z M60,37c0,3.9-3.1,7-7,7h-5.5l1.4,11.3L33.6,44H11c-3.9,0-7-3.1-7-7V11
	c0-3.9,3.1-7,7-7h42c3.9,0,7,3.1,7,7V37z"/>
</svg>
